X: 8
T: Cathleen Hehir's
Z: paddy04
S: https://thesession.org/tunes/157#setting53838
R: slide
M: 12/8
L: 1/8
K: Dmaj
|: "D" dcd e2d "A" c2E EFG| "G" B3 BAG "D" F2D DFA|
"D" dcd e2d "A" c2E EFG|1 "A" ABA "G" GFE "D" D3 DFA:|2 "A" ABA "G" GFE "D" D3 D3||
|: "D" F2A d3 "A" c2B G3| "A" ABA G2E "D" B2A F3|
"D" DFA d3 "A" c2B G2F|1 "Em" EFG "A" ABc "D" d3 d2D:|2 "Em" EFG "A" ABc "D" d3 d2A||
|: "D" DFB "D" A2A "D" DFB "D" ABA| "A" EEE "A" ABA "A" EEE "A" A2A|
"D" DFB "D" ABA "D" DFB "D" ABA| "Em" E2A "A" B2c "D" d3 d2A:||
|: "D" dce d2e "Bm" f2d A3| "D" fef fed "A" c2d ecA|
"D" dce d2e "Bm" f2d A2F|1"Em" EFG "A" ABc "D" D3 D2 A:|2 "Em" EFG "A" ABc "D" d3 d2 A||
|: "D" a2f f2d "D" Adf agf| "A" g2e e2c "A" Ace gfe|
"Bm" f2d d2B "Bm" FBd agf|1 "Em" ecB "A"ABc "D" d3 dfg:|2 "Em" ecB "A"ABc "D" d3 d3||

%-------------------- TUNE SEPARATOR --------------------%

